X: 2485
T: Ballydesmond, The
R: polka
M: 2/4
K: Adorian
"C"cd/c/ "G"Bc/B/|"am"AB/A/ "em"G>A|"G"Bd ed|g2>d2|
"am"ea g>e|"G"dB GA/B/|"C"ce "em"dB|"am"A2A2:|
"am"ea ag/e/|"G"dg g>d|"am"ea ab|"em"g2ed|
"am"ea g>e|"G"dB GA/B/|"am"ce "em"dB|"am"A2A2:|

